assets/images/Google.svg

<svg width="22" height="22" viewBox="0 0 22 22" fill="none" xmlns="http://www.w3.org/2000/svg">
<g clip-path="url(#clip0_1_728)">
<rect width="22" height="22" rx="11" fill="#EA4335"/>
<path d="M3.67122 11.0096C3.52465 7.15055 6.9048 3.58436 10.7677 3.5381C12.7365 3.37017 14.6519 4.13473 16.1419 5.38169C15.5307 6.05371 14.9088 6.71796 14.2446 7.33983C12.9329 6.54292 11.3536 5.93561 9.82065 6.47497C7.34806 7.17902 5.85067 10.0984 6.76567 12.5173C7.52343 15.0436 10.5962 16.43 13.0044 15.3688C14.2514 14.9223 15.0735 13.7717 15.4343 12.5354C14.0051 12.5069 12.5757 12.5247 11.1466 12.4853C11.143 11.635 11.1394 10.7879 11.143 9.93762C13.5263 9.93407 15.9131 9.92695 18.3 9.9483C18.4465 12.0317 18.1392 14.2612 16.7848 15.9334C14.9302 18.3202 11.5038 19.0207 8.71636 18.0843C5.75813 17.1127 3.60684 14.1325 3.67122 11.0096Z" fill="#FEFEFE"/>
</g>
<defs>
<clipPath id="clip0_1_728">
<rect width="22" height="22" fill="white"/>
</clipPath>
</defs>
</svg>

<svg width="22" height="22" fill="none" xmlns="http://www.w3.org/2000/svg"><g clip-path="url(#clip0_1_728)"><rect width="22" height="22" rx="11" fill="#EA4335"/><path d="M3.671 11.01c-.146-3.86 3.234-7.426 7.097-7.472 1.968-.168 3.884.597 5.374 1.844a33.977 33.977 0 01-1.897 1.958c-1.312-.797-2.891-1.404-4.424-.865-2.473.704-3.97 3.623-3.055 6.042.757 2.527 3.83 3.913 6.238 2.852 1.247-.447 2.07-1.597 2.43-2.834-1.429-.028-2.858-.01-4.287-.05-.004-.85-.008-1.697-.004-2.547 2.383-.004 4.77-.011 7.157.01.146 2.084-.16 4.313-1.515 5.985-1.855 2.387-5.281 3.088-8.069 2.151-2.958-.971-5.11-3.951-5.045-7.074z" fill="#FEFEFE"/></g><defs><clipPath id="clip0_1_728"><path fill="#fff" d="M0 0h22v22H0z"/></clipPath></defs></svg>
